X: 17
T: Betty Sue Waltz
R: waltz
S: Lonnie Seymour in the mid-1980s on FRC 404 (track 33)
S: Michael Pavan email 2020-6-9
M: 3/4
L: 1/8
K: D
FE "^A"|:\
"D"D3 E FA | "G"B2 B2 AG | "D"FG AB de | f2 f2 ab | "A"a3 f ec | A2 c2 e2 |\
[1 "D"f3 e fe | d2 A2 F2 :|[2 "D"f3 e fe | d4 ||
cd "^B"|:\
"A"e2 e2 de | "D"f2 f2 fe | "G"d2-de dB | "D"A2 F2 cd | "A"e2 e2 de | "D"f2 f2 fe |\
[1 "(E7)""E"d2 f2 b2 | "A"a2 f2 d2 :|[2 "G"d2 A2 "A"F2 | "D"D4 |]
